X:1
T:Title
%%score { 1 | 2 }
L:1/8
M:4/4
K:G
V:1 treble nm="Grand Piano"
V:2 treble 
V:1
 z4 z2[Q:1/4=100] D2 | B3 _B =B2 c2 | [GB]2 [FA]2 [FA]2 D2 | [Fc]3 [FB] [Fc]2 [Fd]2 |[M:3/4] B6 | %5
[M:1/4] d2 |[M:4/4] d3 G e2 [Gd]2 | [Ec]2 [EA]2 [Ed]2 [Ec]2 | [GB]3 A G2 F2 |[M:3/4] [B,DG]6 | %10
[M:1/4] D2 |[M:4/4] B>_B =B4 d2 | [Fd]2 [FA]4 D2 | [Fc]>[FB] [Fc]4 [Fe]2 |[M:3/4] d6 |[M:1/4] D2 | %16
[M:4/4] B>_B =B4 [=Fd]2 | [Ed]2 [Ec]4 [EB][EA] | [DG]>[DA] [GB]4 A2 |[M:3/4] G6 |] %20
V:2
 z4 z2 [G,B,]2 | [G,DG]3 [G,^CG] [G,DG]2 [G,EG]2 | [D,D]2 [D,D]2 [D,D]2 [D,F,]2 | %3
 [D,A,]3 [D,^G,] [D,A,]2 [D,D]2 |[M:3/4][K:treble] [G,DG]6 |[M:1/4] [G,B,G]2 | %6
[M:4/4] [G,B,G]3 [G,B,] [G,CG]2[K:bass] [B,,G,]2 | [C,G,]2 [C,A,]2 [B,,^G,]2 [C,A,]2 | %8
 [D,D]3 [D,CD] [D,B,D]2 [D,CD]2 |[M:3/4] [G,,G,]6 |[M:1/4] [G,B,]2 | %11
[M:4/4][K:treble] [G,DG]>[G,^CG] [G,DG]4 [G,B,G]2 | [D,A,]2 [D,A,]4 [D,F,]2 | %13
 [D,A,]>[D,^G,] [D,A,]4 [D,C]2 |[M:3/4][K:treble] [G,B,G]6 |[M:1/4] [G,B,]2 | %16
[M:4/4] [G,DG]>[G,^CG] [G,DG]4[K:bass] [B,,G,]2 | [C,G,]2 [A,,A,]4 [B,,^G,][C,A,] | %18
 [D,B,]>[D,C] [D,D]4 [D,CD]2 |[M:3/4] [G,B,D]6 |] %20

